X: 421
U:~=!turn!
M:C
L:1/8
K:Bb
g | fbdf Bdfd | e>cd>B G/G/G G>g | fbdf Bdfd | e>cf>d B/B/B Bg |
fbdf Bdfd | e>cd>B G/G/G G>B | FBDB ~FGBg | f>dTc>d B/B/B B |]


